src/assets/pin.svg

<svg width="52" height="53" viewBox="0 0 52 53" fill="none" xmlns="http://www.w3.org/2000/svg">
<g filter="url(#filter0_d_582_1113)">
<circle cx="26" cy="22.7305" r="22" fill="white"/>
</g>
<path fill-rule="evenodd" clip-rule="evenodd" d="M21 13.5305L26 8.73047L31 13.5305L29.75 14.7305L26 11.1305L22.25 14.7305L21 13.5305Z" fill="#292524"/>
<path fill-rule="evenodd" clip-rule="evenodd" d="M21 31.9305L26 36.7305L31 31.9305L29.75 30.7305L26 34.3305L22.25 30.7305L21 31.9305Z" fill="#292524"/>
<path fill-rule="evenodd" clip-rule="evenodd" d="M35.2 17.7305L40 22.7305L35.2 27.7305L34 26.4805L37.6 22.7305L34 18.9805L35.2 17.7305Z" fill="#292524"/>
<path fill-rule="evenodd" clip-rule="evenodd" d="M16.8 17.7305L12 22.7305L16.8 27.7305L18 26.4805L14.4 22.7305L18 18.9805L16.8 17.7305Z" fill="#292524"/>
<defs>
<filter id="filter0_d_582_1113" x="0" y="0.730469" width="52" height="52" filterUnits="userSpaceOnUse" color-interpolation-filters="sRGB">
<feFlood flood-opacity="0" result="BackgroundImageFix"/>
<feColorMatrix in="SourceAlpha" type="matrix" values="0 0 0 0 0 0 0 0 0 0 0 0 0 0 0 0 0 0 127 0" result="hardAlpha"/>
<feOffset dy="4"/>
<feGaussianBlur stdDeviation="2"/>
<feComposite in2="hardAlpha" operator="out"/>
<feColorMatrix type="matrix" values="0 0 0 0 0 0 0 0 0 0 0 0 0 0 0 0 0 0 0.25 0"/>
<feBlend mode="normal" in2="BackgroundImageFix" result="effect1_dropShadow_582_1113"/>
<feBlend mode="normal" in="SourceGraphic" in2="effect1_dropShadow_582_1113" result="shape"/>
</filter>
</defs>
</svg>

<svg xmlns="http://www.w3.org/2000/svg" width="52" height="53" fill="none" viewBox="0 0 52 53"><g filter="url(#a)"><circle cx="26" cy="22.73" r="22" fill="#fff"/></g><path fill="#292524" fill-rule="evenodd" d="m21 13.53 5-4.8 5 4.8-1.25 1.2-3.75-3.6-3.75 3.6zm0 18.4 5 4.8 5-4.8-1.25-1.2-3.75 3.6-3.75-3.6zm14.2-14.2 4.8 5-4.8 5-1.2-1.25 3.6-3.75-3.6-3.75zm-18.4 0-4.8 5 4.8 5 1.2-1.25-3.6-3.75 3.6-3.75z" clip-rule="evenodd"/><defs><filter id="a" width="52" height="52" x="0" y=".73" color-interpolation-filters="sRGB" filterUnits="userSpaceOnUse"><feFlood flood-opacity="0" result="BackgroundImageFix"/><feColorMatrix in="SourceAlpha" result="hardAlpha" values="0 0 0 0 0 0 0 0 0 0 0 0 0 0 0 0 0 0 127 0"/><feOffset dy="4"/><feGaussianBlur stdDeviation="2"/><feComposite in2="hardAlpha" operator="out"/><feColorMatrix values="0 0 0 0 0 0 0 0 0 0 0 0 0 0 0 0 0 0 0.25 0"/><feBlend in2="BackgroundImageFix" result="effect1_dropShadow_582_1113"/><feBlend in="SourceGraphic" in2="effect1_dropShadow_582_1113" result="shape"/></filter></defs></svg>
